!!!OTL: 1731. Nachtigall und Frosch.
!!!ARE: Europa, Mitteleuropa, Deutschland, Schlesien
!!!SCT: E1731
!!!TXL: @@DE
!!!YEM: Copyright 1995, estate of Helmut Schaffrath.
**kern	**text
*ICvox	*
*M3/4	*
*k[f#c#]	*
*D:	*
=1	=1
!LO:TX:a:t=Schnell.	!
!LO:TX:a:t=Schleſ. Volksmel.	!
{8d	Wenn
8c#	die
8d	Nach-
8e	-ti-
8f#	-gal-
8g	-len
=2	=2
4a	ſchla-
4a	-gen,
4r}	.
=3	=3
{8a	ei,
8b/	wem
8a	ſollt
8g	es
8f#	nicht
8e	be-
=4	=4
4d	-ha-
4d	-gen!
4r}	.
=5	=5
{4a	tjo,
4a	tjo,
4r	.
=6	=6
4b	tjo,
4b	tjo,
4r}	.
=7	=7
{4cc#	tü,
4cc#	tü,
4cc#	tü,
=8	=8
8dd	ʒier,
8a	ʒier,
8f#	ʒier,
8a	ʒier,
4d}	ʒier!
=9	=9
{8a	tjo,
8a	tjo,
8a	tjo,
8a	tjo,
4ee	tü,
=10	=10
8a	tjo,
8a	tjo,
8a	tjo,
8a	tjo,
4ff#}	tü,
=11	=11
{8a	ei,
8b/	wem
8a	ſollt
8g	es
8f#	nicht
8e	be-
=12	=12
4d	-ha-
4d	-gen!
4r}	.
==	==
!!!AGN: Scherz - Lied, Soldaten - Lied
!!!ONB: ESAC (Essen Associative Code) Database: ERK3
!!!AMT: simple triple
!!!AIN: vox
!!!EED: Helmut Schaffrath
!!!EEV: 1.0
!!!GTL: Scherz-, Spiel- und Spottlieder.
!!!URL-scan: https://rosdok.uni-rostock.de/mcrviewer/recordIdentifier/rosdok_ppn745177999/iview2/phys_0525.iview2?x=-449.8344612962892&y=1625.454496391816&scale=0.47549036216460333&rotation=0&layout=singlePageLayout
!!!ENC: Anna Maria Matuszewska
!!!EEV: 2025/08/01
*-	*-
